src/images/svg-to-icon-sprite/ancor-icon.svg

<svg width="20" height="22" viewBox="0 0 20 22" fill="none" xmlns="http://www.w3.org/2000/svg">
<path fill-rule="evenodd" clip-rule="evenodd" d="M12.7405 2.90865C12.7405 4.12298 11.9964 5.1635 10.9392 5.59909C10.8529 5.63465 10.8014 5.72397 10.8014 5.8173V6.78685C10.8014 7.32232 11.2355 7.75641 11.771 7.75641L13.7101 7.75641C14.2455 7.75641 14.6796 8.19049 14.6796 8.72596C14.6796 9.26142 14.2455 9.69551 13.7101 9.69551L11.771 9.69551C11.2355 9.69551 10.8014 10.1296 10.8014 10.6651V15.9673C10.8014 16.6339 11.1044 17.1944 11.5286 17.2853C11.8975 17.3643 12.7479 17.0766 13.651 16.771C13.7861 16.7253 13.9224 16.6792 14.0585 16.6339C14.8947 16.3551 16.043 15.4573 16.5127 15.0432L14.9977 13.8464L19.6637 12.4678V17.1944L18.0882 16.1491C17.8104 16.6137 16.9853 17.7579 15.9067 18.6184C14.8826 19.4354 13.9109 19.728 13.0713 19.9808C12.8056 20.0608 12.5531 20.1368 12.3163 20.2242C11.6362 20.4753 11.0356 21.1095 10.6442 21.5227C10.469 21.7077 10.3357 21.8485 10.256 21.8906C10.05 21.9997 9.8874 22.0068 9.83185 21.9967C9.7763 22.0068 9.6137 21.9997 9.40767 21.8906C9.32802 21.8485 9.19474 21.7077 9.01949 21.5227C8.62815 21.1095 8.02751 20.4753 7.34738 20.2242C7.11063 20.1368 6.85812 20.0608 6.59237 19.9808C5.75281 19.728 4.78113 19.4354 3.75701 18.6184C2.67838 17.7579 1.85326 16.6137 1.57552 16.1491L0 17.1944V12.4678L4.66596 13.8464L3.15104 15.0432C3.62067 15.4573 4.76898 16.3551 5.60521 16.6339C5.74126 16.6792 5.87756 16.7253 6.01268 16.771C6.91577 17.0766 7.76616 17.3643 8.13514 17.2853C8.55897 17.1944 8.86181 16.6348 8.8623 15.9689L8.8623 10.6651C8.8623 10.1296 8.42822 9.69551 7.89275 9.69551L5.95365 9.69551C5.41818 9.69551 4.9841 9.26142 4.9841 8.72596C4.9841 8.19049 5.41818 7.7564 5.95365 7.7564L7.89275 7.75641C8.42822 7.75641 8.8623 7.32232 8.8623 6.78685V5.8173C8.8623 5.72397 8.81078 5.63465 8.72449 5.59909C7.66734 5.1635 6.9232 4.12298 6.9232 2.90865C6.9232 1.30225 8.22544 0 9.83185 0C11.4383 0 12.7405 1.30225 12.7405 2.90865ZM9.83185 3.8782C10.3673 3.8782 10.8014 3.44412 10.8014 2.90865C10.8014 2.37318 10.3673 1.9391 9.83185 1.9391C9.29638 1.9391 8.8623 2.37318 8.8623 2.90865C8.8623 3.44412 9.29638 3.8782 9.83185 3.8782Z" fill="black"/>
</svg>

<svg width="20" height="22" fill="none" xmlns="http://www.w3.org/2000/svg"><path fill-rule="evenodd" clip-rule="evenodd" d="M12.74 2.909a2.91 2.91 0 0 1-1.8 2.69.233.233 0 0 0-.139.218v.97c0 .535.434.97.97.97h1.94a.97.97 0 0 1 0 1.939h-1.94a.97.97 0 0 0-.97.97v5.301c0 .667.303 1.227.728 1.318.369.08 1.219-.208 2.122-.514l.408-.137c.836-.279 1.984-1.177 2.454-1.59l-1.515-1.198 4.666-1.378v4.726l-1.576-1.045c-.278.465-1.103 1.609-2.181 2.47-1.024.816-1.996 1.109-2.836 1.362-.265.08-.518.156-.755.243-.68.251-1.28.886-1.672 1.299-.175.185-.308.326-.388.368-.206.109-.369.116-.424.106-.056.01-.218.003-.424-.106-.08-.042-.213-.183-.389-.368-.39-.413-.991-1.048-1.672-1.299-.236-.087-.489-.163-.755-.243-.84-.253-1.81-.546-2.835-1.363-1.079-.86-1.904-2.004-2.181-2.469L0 17.194v-4.726l4.666 1.378-1.515 1.197c.47.414 1.618 1.312 2.454 1.59l.408.138c.903.306 1.753.593 2.122.514.424-.09.727-.65.727-1.316v-5.304a.97.97 0 0 0-.97-.97H5.955a.97.97 0 0 1 0-1.939h1.939a.97.97 0 0 0 .97-.97v-.969a.233.233 0 0 0-.139-.218 2.91 2.91 0 1 1 4.017-2.69Zm-2.908.97a.97.97 0 1 0 0-1.94.97.97 0 0 0 0 1.94Z" fill="#000"/></svg>
